!!!!SEGMENT: pl-wnifc--13846--032_anonim--piesni-polskie-i-ruskie-ludu-galicyjskiego-32-czemus-oczka-zaplakala-kochaneczko-moja-mila.krn
!!!cenid: 18xx:3254
!!!COM: Anonim
!!!COM-rismID: pe30004985
!!!CDT:
!!!CNT:
!!!GTL: Pieśni polskie i ruskie ludu galicyjskiego
!!!OTL: 32. Czemuś oczka zapłakała kochaneczko moja miła?
!!!PDT: 1833
!!!AGN:
!!!SMS-siglum: PL-Wnifc
!!!SMS-shelfmark: 13846
!!!SMS-shelfwork: 032 G
!!!NIFC-rismSourceID: 1001036701
!!!NIFC-rismChildID: 1001036811
!!!NIFC-islandoraID: nifc:210326
!!!URL-pdf-islandora: https://repozytorium.nifc.pl/islandora/object/nifc%3A210326/datastream/PDF/view
!!!URL-scan:
!!!ONB-nifc:
!!!AIN: 1 piano 1 soprn
!!!key: A
**kern	**kern	**dynam	**kern	**text
*group2	*group2	*	*group1	*
*part2	*part2	*part2	*part1	*part1
*staff3	*staff2	*	*staff1	*staff1
*I"[Piano]	*I"[Piano]	*	*I"[Soprano]	*
*Ipiano	*Ipiano	*	*Isoprn	*
*ICklav	*ICklav	*	*ICvox	*
*IGacmp	*IGacmp	*	*IGsolo	*
*clefF4	*clefG2	*	*clefG2	*
*k[f#c#g#]	*k[f#c#g#]	*	*k[f#c#g#]	*
*A:	*A:	*	*A:	*
*M3/8	*M3/8	*	*M3/8	*
*>[A,B,B]	*>[A,B,B]	*	*>[A,B,B]	*
=1-	=1-	=1-	=1-	=1-
*>A	*>A	*	*>A	*
!	!	!	!LO:TX:a:B:t=Mazur.:rj	!
!	!	!	!LO:TX:b:B:rj:t=D.b.53	!
4AA/ 4E/ 4A/	8r	.	16.cc#/	Cze-
.	.	.	32b/	-muś
.	8c#L 8e 8a	.	8a/	o-
8r	8c#J 8e 8a	.	8a/	-czka
=2	=2	=2	=2	=2
4AA/ 4E/ 4A/	8r	.	16a/	za-
.	.	.	16b/	-pła-
.	8c#L 8e 8a	.	8cc#/	-ka-
8r	8c#J 8e 8a	.	8cc#/	-ła
!!LO:PB:g=original
=3	=3	=3	=3	=3
4EE/ 4E/	8r	.	16dd\	ko-
.	.	.	16cc#\	-cha-
.	8B/L 8d/ 8e/ 8g#/	.	8.b\	-ne-
8r	8B/J 8d/ 8e/ 8g#/	.	.	.
.	.	.	16a/	-czko
=4	=4	=4	=4	=4
4EE/ 4E/	8r	.	16g#/	mo-
.	.	.	16f#/	-ja
.	8B/L 8d/ 8e/ 8g#/	.	8g#/	mi-
8r	8B/J 8d/ 8e/ 8g#/	.	8e/	-ła?
=5	=5	=5	=5	=5
4AA\ 4E\ 4A\	8r	.	16.cc#\	Czy
.	.	.	32b/	cię
.	8c#/ 8e/ 8a/	.	8a/	ma-
!!LO:LB:g=original
8r	8c#/ 8e/ 8a/	.	8a	-tka
=6	=6	=6	=6	=6
4C#/ 4E/ 4A/	8r	.	16a/	po-
.	.	.	16b/	-ła-
.	8c#/L 8e/ 8a/	.	8cc#/	-ja-
8r	8c#/J 8e/ 8a/	.	(<16cc#/LL	-ła,
.	.	.	16ee/JJ)	.
=7	=7	=7	=7	=7
4EE/ 4E/	8r	.	16dd\	czyś
.	.	.	16cc#/	o-
.	8B/L 8d/ 8e/ 8g#/	.	8.b/	-wie-
8r	8B/J 8d/ 8e/ 8g#/	.	.	.
.	.	.	16a/	-czkę
!!LO:LB:g=original
=8	=8	=8	=8	=8
4EE/ 4E/	8r	.	16g#	za-
.	.	.	16f#	-gu-
.	8B/L 8d/ 8e/ 8g#/	.	8g#	-bi-
8r	8B/J 8d/ 8e/ 8g#/	.	8e	-ła?
=9!|:	=9!|:	=9!|:	=9!|:	=9!|:
*>B	*>B	*	*>B	*
16EE/ 16E/	16r	.	8.e/	Oj
16r	16B/ 16d/ 16e/ 16g#/	.	.	.
16EE/ 16E/	16r	.	.	.
16r	16B/ 16d/ 16e/ 16g#/	.	16g#/	nie
16EE/ 16E/	16r	.	16b/	to-
16r	16B/ 16d/ 16e/ 16g#/	.	16dd/	-to,
=10	=10	=10	=10	=10
16AA/ 16E/	16r	.	16cc#/	oj
16r	16c#/ 16e/ 16a/	.	16b/	nie
!!LO:LB:g=original
16AA/ 16E/	16r	.	16a	to
16r	16c#/ 16e/ 16a/	.	16b/	to,
16AA/ 16E/	16r	.	16cc#/	nie
16r	16c#/ 16e/ 16a/	.	16ee\	to,
=11	=11	=11	=11	=11
16EE/ 16E/	16r	.	16dd\	co
16r	16B/ 16d/ 16e/ 16g#/	.	16cc#\	mię
16EE/ 16E/	16r	.	16b\	nie-
16r	16B/ 16d/ 16e/ 16g#/	.	16cc#\	-spo-
16EE/ 16E/	16r	.	16dd\	-koj-
16r	16B/ 16d/ 16e/ 16g#/	.	16ee\	-ną
!!LO:PB:g=original
=12	=12	=12	=12	=12
16AA/ 16E/	16r	.	8cc#/	czy-
16r	16c#/ 16e/ 16a/	.	.	.
16AA/ 16E/	16r	.	4a/	-ni,
16r	16c#/ 16e/ 16a/	.	.	.
16AA/ 16E/	16r	.	.	.
16r	16c#/ 16e/ 16a/	.	.	.
=13	=13	=13	=13	=13
16EE/ 16E/	16r	.	8.e/	oj
16r	16B/ 16d/ 16e/ 16g#/	.	.	.
16EE/ 16E/	16r	.	.	.
16r	16B/ 16d/ 16e/ 16g#/	.	16g#/	nie
16EE/ 16E/	16r	.	16b/	to-
16r	16B/ 16d/ 16e/ 16g#/	.	16dd\	-to,
!!LO:LB:g=original
=14	=14	=14	=14	=14
16AA/ 16E/	16r	.	16cc#/	oj
16r	16c#/ 16e/ 16a/	.	16b/	nie
16AA/ 16E/	16r	.	16a/	to-
16r	16c#/ 16e/ 16a/	.	16b/	-to,
16AA/ 16E/	16r	.	16cc#/	nie
16r	16c#/ 16e/ 16a/	.	16ee\	to,
=15	=15	=15	=15	=15
16EE/ 16E/	16r	.	16dd\	co
16r	16B/ 16d/ 16e/ 16g#/	.	16cc#\	mię
16EE/ 16E/	16r	.	16b/	nie-
16r	16B/ 16d/ 16e/ 16g#/	.	16cc#\	-spo-
16EE/ 16E/	16r	.	16dd\	-koj-
16r	16B/ 16d/ 16e/ 16g#/	.	16g#/	-ną
=16	=16	=16	=16	=16
4AA/ 4E/	8r	.	(<16b/LL	czy-
.	.	.	16a/JJ)	.
!	!	!LO:DY:rj	!	!
.	4c#/ 4e/ 4a/	sf	4a/	-ni
8r	.	.	.	.
=:|!	=:|!	=:|!	=:|!	=:|!
*-	*-	*-	*-	*-
!!!system-decoration: g1,[{g2}]
!!!RDF**kern: > = above
!!!RDF**kern: < = below
!!!ENC: Jędrzej Mróz
!!!END: 2021-11-10
!!!YEC: Copyright 2022 Narodowy Instytut Fryderyka Chopina (https://polishscores.org)
!!!YEM: License CC-BY-4.0 (https://creativecommons.org/licenses/by/4.0)
